X:1
T:Le petit moulin (le meunier Mathurin)
C:Das trikot (andro-hanterdro), fichier ABC par Bernard Loffet
L:1/8
Q:364
M:3/2
K:C
|: [A2A,,2][cA,]B [c2A,,2]A,d [e2C,,2][e2C,2] | [d2G,,2][cG,]B [d2E,,2][c2E,2] [A2A,,2]A,2 | [A2A,,2][cA,]B [c2A,,2]A,d [e2C,,2][e2C,2] | \
 [d2G,,2][cG,]B [d2E,,2][c2E,2] [A2A,,2]A,2 :| \
M:2/2
|: [AA,,]B[cA,]d [e2C,,2][e2C,2] | [dD,,]e[dD,]c [B2E,,2][AA,]B | [d2F,,2][cF,]B [A2F,,2][B2F,2] | \
 [c2D,,2][BD,]A [B2E,,2]E,2 | [AA,,]B[cA,]d [e2C,,2][e2C,2] | [dD,,]e[dD,]c [B2E,,2][AA,]B | [d2F,,2][c2F,2] [B2F,,2][A2F,2] | \
 [c2G,,2][B2G,2] [A2A,,2]A,2 :| \
W:Created with TablEdit http://www.tabledit.com/ by Bernard Loffet
